svgs/thin/sidebar-flip.svg

<svg xmlns="http://www.w3.org/2000/svg" viewBox="0 0 512 512"><!--! Font Awesome Pro 6.4.2 by @fontawesome - https://fontawesome.com License - https://fontawesome.com/license (Commercial License) Copyright 2023 Fonticons, Inc. --><path d="M64 48C37.5 48 16 69.5 16 96V416c0 26.5 21.5 48 48 48H288V48H64zm384 0H304V464H448c26.5 0 48-21.5 48-48V96c0-26.5-21.5-48-48-48zm0-16c35.3 0 64 28.7 64 64V416c0 35.3-28.7 64-64 64H64c-35.3 0-64-28.7-64-64V96C0 60.7 28.7 32 64 32H448zm-8 64c4.4 0 8 3.6 8 8s-3.6 8-8 8H360c-4.4 0-8-3.6-8-8s3.6-8 8-8h80zm8 72c0 4.4-3.6 8-8 8H360c-4.4 0-8-3.6-8-8s3.6-8 8-8h80c4.4 0 8 3.6 8 8zm-8 56c4.4 0 8 3.6 8 8s-3.6 8-8 8H360c-4.4 0-8-3.6-8-8s3.6-8 8-8h80z"/></svg>

<svg xmlns="http://www.w3.org/2000/svg" viewBox="0 0 512 512"><!--! Font Awesome Pro 6.1.1 by @fontawesome - https://fontawesome.com License - https://fontawesome.com/license (Commercial License) Copyright 2022 Fonticons, Inc. --><path d="M440 96C444.4 96 448 99.58 448 104C448 108.4 444.4 112 440 112H360C355.6 112 352 108.4 352 104C352 99.58 355.6 96 360 96H440zM440 176H360C355.6 176 352 172.4 352 168C352 163.6 355.6 160 360 160H440C444.4 160 448 163.6 448 168C448 172.4 444.4 176 440 176zM440 224C444.4 224 448 227.6 448 232C448 236.4 444.4 240 440 240H360C355.6 240 352 236.4 352 232C352 227.6 355.6 224 360 224H440zM448 32C483.3 32 512 60.65 512 96V416C512 451.3 483.3 480 448 480H64C28.65 480 0 451.3 0 416V96C0 60.65 28.65 32 64 32H448zM16 96V416C16 442.5 37.49 464 64 464H288V48H64C37.49 48 16 69.49 16 96zM448 48H304V464H448C474.5 464 496 442.5 496 416V96C496 69.49 474.5 48 448 48z"/></svg>
